X: 43502
T: Yeomen's, The
R: reel
M: 4/4
K: Adorian
|:cAAA e2dc|BGGG BcdB|cAAA e2dc|BGdB cAA2:|
cdef g2g2|bgaf gfed|eaa2 eaa2|eaa2 gfed|
^cdef g2g2|bgaf gfed|eaag e2dc|BGdB cAA2|

